X:1
T:Title
%%score 1 2 3 4
L:1/8
Q:1/4=170
M:4/4
K:E
V:1 treble nm="Church Organ, Church Organ"
V:2 treble nm="French Horn, French Horn"
V:3 bass nm="Trombone, Trombone"
V:4 bass nm="Tuba, Tuba"
V:1
 E4 G4 | E4 F4 | F4 E4- | E8 | B4 d4 | B4 c4 | c4 B4- | B8 | A4 G4 | E4 c4 | B4 c4 | d4 e4 | %12
w: By~B.~Milgrave~(Mount~Ephraim),~1769 *||||||||||||
 c4 B4 | A4 G4 | F4 E4- | E8 |] %16
w: ||||
V:2
 B,4 E4 | E4 E4 | D4 E4- | E8 | F4 F4 | F4 G4 | F4 D4- | D8 | F4 E4 | E4 E4 | E4 E4 | A4 G4 | %12
w: Glo ry,~|to~ Thee,~|O~ Lord,~||Who~ from~|this~ world~|of~ sin,~||By~ cru|el~ He|rod's~ ruth|less~ sword~|
 E2 F2 G4 | F4 E4 | D4 E4- | E8 |] %16
w: Those~ * pre|cious~ ones~|didst~ win.~||
V:3
 G,4 B,4 | B,4 C4 | B,4 G,4- | G,8 | B,4 B,4 | B,4 B,4 | ^A,4 B,4- | B,8 | B,4 B,4 | B,4 A,4 | %10
 B,4 A,4 | A,4 B,4 | C2 D2 E4 | C4 B,4- | B,2 A,2 G,4- | G,8 |] %16
V:4
 E,4 E,4 | G,4 A,4 | B,4 E,4- | E,8 | D,4 B,,4 | D,4 E,4 | F,4 B,,4- | B,,8 | D,4 E,4 | G,4 A,4 | %10
 G,4 A,4 | F,4 E,4 | A,,4 G,,4 | A,,4 B,,4 | B,,4 E,4- | E,8 |] %16

